**kern	**kern	**kern	**kern
*part4	*part3	*part2	*part1
*staff4	*staff3	*staff2	*staff1
*I"Cello	*I"Viola	*I"2nd Violin	*I"1st Violin
*clefF4	*clefC3	*clefG2	*clefG2
*k[b-]	*k[b-]	*k[b-]	*k[b-]
*F:	*F:	*F:	*F:
*M4/4	*M4/4	*M4/4	*M4/4
*met(c)	*met(c)	*met(c)	*met(c)
=1	=1	=1	=1
!	!	!	!LO:TX:a:B:t=Allegro spiritoso
2F'	2F'	2f'	2f'
2A'	2A'	2a'	2a'
=2	=2	=2	=2
(4c	(4c	(4cc	(4cc
4A)	4A)	4a)	4a)
4F'	4F'	4f'	4f'
4A'	4A'	4a'	4a'
=3	=3	=3	=3
(8cL	(8cL	(8ccL	(8ccL
8A)	8A)	8a)	8a)
8c'	8c'	8cc'	8cc'
8A'J	8A'J	8a'J	8a'J
4F'	4F'	4f'	4f'
4c'	4c'	4cc'	4cc'
=4	=4	=4	=4
4f'	4f'	4ff'	4ff'
4c'	4c'	4cc'	4cc'
4A'	4A'	4a'	4a'
4F'	4F'	4f'	4f'
=5	=5	=5	=5
(8CL	(8cL	(8cL	(8cL
8BBn	8Bn	8Bn	8Bn
8C	8c	8c	8c
8BBJ)	8BJ)	8BJ)	8BJ)
(8CL	(8cL	(8cL	(8cL
8E)	8e)	8e)	8e)
8G'	8g'	8g'	8g'
8E'J	8e'J	8e'J	8e'J
=6	=6	=6	=6
(8CL	(8cL	(8cL	(8cL
8BBn	8Bn	8Bn	8Bn
8C	8c	8c	8c
8BBJ)	8BJ)	8BJ)	8BJ)
(8CL	(8cL	(8cL	(8cL
8E)	8e)	8e)	8e)
8G'	8g'	8g'	8g'
8E'J	8e'J	8e'J	8e'J
=7	=7	=7	=7
4C	4c	4c	4c
4r	4r	4r	4r
4CC	4E	4c	4c
8r	8r	8r	8r
16r	16r	16r	16r
16CC	16E	16c	16c
=8	=8	=8	=8
1CC;	1E;	1c;	1c;
=9!|:	=9!|:	=9!|:	=9!|:
4F	(8FL	(8AL	2f'
.	8A)	8c)	.
4r	(8F	(8A	.
.	8AJ)	8cJ)	.
2r	(8FL	(8AL	2a'
.	8A)	8c)	.
.	(8F	(8A	.
.	8AJ	8cJ)	.
=10	=10	=10	=10
4F	(8FL	(8AL	4cc'
.	8A)	8c)	.
4r	(8F	(8A	4cc'
.	8AJ)	8cJ)	.
2r	(8FL	(8AL	4cc'
.	8A)	8c)	.
.	(8F	(8A	4ff'
.	8AJ)	8cJ)	.
=11	=11	=11	=11
4F	(8GL	(8B-L	(8eeL
.	8B-)	8c)	8ff)
4r	(8G	(8B-	8gg'
.	8B-J)	8cJ)	8ee'J
2r	(8GL	(8B-L	4cc'
.	8B-)	8c)	.
.	(8G	(8B-	4ee'
.	8B-J)	8cJ)	.
=12	=12	=12	=12
4F	(8FL	(8AL	4ff'
.	8A)	8c)	.
4r	(8F	(8A	4ff'
.	8AJ)	8cJ)	.
2r	(8FL	(8AL	(8ffL
.	8A)	8c)	8gg)
.	(8F	(8A	8aa'
.	8AJ)	8cJ)	8bb-'J
=13	=13	=13	=13
2E	8GL	8B-L	2ccc
.	8B-	8c	.
.	8G	8e	.
.	8B-J	8gJ	.
2F	8GL	8fL	4aa
.	8f	8c	.
.	8c	8a	4ff
.	8AJ	8fJ	.
=14	=14	=14	=14
2E	8FL	8B-L	2ccc
.	8B-	8c	.
.	8G	8e	.
.	8B-J	8gJ	.
2F	8AL	8fL	4aa
.	8f	8c	.
.	8c	8a	4ff
.	8AJ	8fJ	.
=15	=15	=15	=15
2BB-	(4f	2.d	2ddd
.	4f#X	.	.
2B-	4g)	.	(8cccL
.	.	.	8bb-
.	4b-'	4dd'	8aa
.	.	.	8ggJ)
=16	=16	=16	=16
1c	(2a	2.cc	(2ff
.	4g)	.	4ee)
.	4f'	4bn'	4dd'
=17	=17	=17	=17
4c'	4e'	4cc'	4cc'
4c'	4e'	4g'	4cc'
4c'	4e'	4g'	4cc'
4c	4f'	4g'	(8ddL
.	.	.	8bnJ)
=18	=18	=18	=18
4c'	4e'	4g'	4cc'
4c'	4e'	4g'	4cc'
4c'	4e'	4g'	4cc'
4c'	4f'	4g'	(8ddL
.	.	.	8bnJ)
=19	=19	=19	=19
4c	4e	4e	4cc
4r	4r	4r	4r
4c	4e	4g	4cc
4r	4r	4r	4r
=20	=20	=20	=20
4c	4e	4e	4cc
4r	4r	4r	4r
2r;	2r;	2r;	2r;
=21	=21	=21	=21
4GG 4G	(8GL	(8B-XL	2g'
.	8B-X)	8d)	.
4r	(8G	(8B-	.
.	8B-J)	8dJ)	.
2r	(8GL	(8B-L	2b-'
.	8B-)	8d)	.
.	(8G	(8B-	.
.	8B-J)	8dJ)	.
=22	=22	=22	=22
4GG 4G	(8GL	(8B-L	4dd'
.	8B-)	8d)	.
4r	(8G	(8B-	4dd'
.	8B-J)	8dJ)	.
2r	(8GL	(8B-L	4dd'
.	8B-)	8d)	.
.	(8G	(8B-	4gg'
.	8B-J)	8dJ)	.
=23	=23	=23	=23
4GG 4G	(8AL	(8cL	(8ff#XL
.	8c)	8d)	8gg)
4r	(8A	(8c	8aa'
.	8cJ)	8dJ)	8ff#'J
2r	(8AL	(8cL	4dd'
.	8c)	8d)	.
.	(8A	(8c	4ff#'
.	8cJ)	8dJ)	.
=24	=24	=24	=24
4GG 4G	(8GL	(8B-L	4gg'
.	8B-)	8d)	.
4r	(8G	(8B-	4gg'
.	8B-J)	8dJ)	.
2r	(8GL	(8B-L	(8ggL
.	8B-)	8d)	8aa)
.	(8G	(8B-	8bb-'
.	8B-J)	8dJ)	8ccc'J
=25	=25	=25	=25
2F#X	8AL	8cL	(2ddd
.	8c	8d	.
.	8A	8f#X	.
.	8cJ	8aJ	.
2G	8B-L	8gL	4bb-)
.	8d	8d	.
.	8g	8b-	4gg'
.	8b-J	8ddJ	.
=26	=26	=26	=26
(2C	(2b-	2gg	(2eee
4D)	4a	[2ffn	4fffn)
4d	4g#X)	.	(4bbn
=27	=27	=27	=27
2c	(4a	4ff]	4ccc)
.	4f	(4a	(4aa
2C	4e	4g	4bb-X
.	4gn)	4b-)	4ee)
=28	=28	=28	=28
[1F	(4f	(4a	[1ff
.	4A	4cc#X	.
.	4B-	4dd	.
.	4c#X)	4a)	.
=29	=29	=29	=29
1F_	2.d	4b-'	4ff]
.	.	(8ddL	4ff'
.	.	8b-J)	.
.	.	4f	4ff'
.	4B-	4dd	4ff'
=30	=30	=30	=30
1F_	(4A	(4cc	[1ff
.	4G#X	4bn	.
.	4A	4cc	.
.	4Bn)	4a-X)	.
=31	=31	=31	=31
2F]	4c	4a	4ff]
.	4r	(8ccL	4ff'
.	.	8aJ)	.
2A	2r	4f	4ff'
.	.	4r	4ff'
=32	=32	=32	=32
[1c	4r	4r	(4ee
.	(4e	(4g	4cc
.	4f)	4a-X)	4bn
.	4f'	4a-'	4dd)
=33	=33	=33	=33
1c_	2.e	2.g	(4cc
.	.	.	4ccc)
.	.	.	4cc'
.	4d	4bn	4ff'
=34	=34	=34	=34
2.c]	4e'	4cc'	4ee'
.	(4e	(4g	4cc'
.	4f)	4a-X)	(8bnL
.	.	.	8cc
4C	4f'	4a-'	8dd
.	.	.	8bJ)
=35	=35	=35	=35
4c'	4e'	4g'	2.cc
4c'	4e'	4g'	.
4c'	4e'	4g'	.
4C	(4f	(4a-X	(8ddL
.	.	.	8bnJ)
=36	=36	=36	=36
4c	4e)	4g)	4cc
4c	(4f	(4a-X	(8ddL
.	.	.	8bnJ)
4c	4e)	4g)	4cc
4C	(4f	(4a-	(8ddL
.	.	.	8bJ)
=37	=37	=37	=37
4c	4e)	4g)	2.cc
4c	4e'	4g'	.
4c	4e'	4g'	.
4C	(4f	(4a-X	(8ddL
.	.	.	8bnJ)
=38	=38	=38	=38
4c	4e)	4g)	4cc
4c	(4f	(4a-X	(8ddL
.	.	.	8bnJ)
4c	4e)	4g)	4cc
4c	(4f	(4a-	(8ddL
.	.	.	8bJ)
=39	=39	=39	=39
4c	4e)	4g)	2cc
4r	4r	(4cc	.
2r	4r	4bn	4dd
.	4c	4b-X)	4ee
=40	=40	=40	=40
1r	[1f	(2a	(4ff
.	.	.	4ccc#X
.	.	4b-	4ddd
.	.	4cc#X)	4aa)
=41	=41	=41	=41
1r	1f_	2.dd	4bb-
.	.	.	(8dddL
.	.	.	8bb-J)
.	.	.	4ff
.	.	4b-	4ddd
=42	=42	=42	=42
1r	1f_	(4a	(4ccc
.	.	4g#X	4bbn
.	.	4a	4ccc
.	.	4bn)	4gg#X)
=43	=43	=43	=43
2r	1f]	2.cc	4aa
.	.	.	(8cccL
.	.	.	8aaJ)
4r	.	.	4ff
(8FL	.	4a	4fff
8AJ)	.	.	.
=44	=44	=44	=44
[1c	(4c	4g	(4eee
.	4e	(4g	4ccc)
.	4f)	4a-X)	(4bbn
.	4f	4a-	4ddd)
=45	=45	=45	=45
1c_	2.e	2.g	2.ccc
.	4d	4bn	4ff
=46	=46	=46	=46
1c]	4e	(4cc	(4ee
.	(4e	4g	4cc)
.	4f)	4a-X	(4bn
.	4f'	4bn)	4dd)
=47	=47	=47	=47
2.cT	2.ccT	2.ccT	8ccL
.	.	.	8ee
.	.	.	8gg
.	.	.	8cccJ
.	.	.	8ccL
.	.	.	8ccc
4Bn	4bn	4bn	8bn
.	.	.	8bbnJ
=48	=48	=48	=48
2.At	2.at	2.at	8aL
.	.	.	8cc
.	.	.	8ee
.	.	.	8aaJ
.	.	.	4a
4G	4g	4g	4g
=49	=49	=49	=49
2.FT	2.fT	2.fT	8fL
.	.	.	8a
.	.	.	8cc
.	.	.	8ffJ
.	.	.	4f
4E	4e	4e	4e
=50	=50	=50	=50
4DT	4dT	4dT	4dT
4C	4c	4c	4c
4BBnt	4Bnt	4Bnt	4Bnt
4AA	4A	4A	4A
=51	=51	=51	=51
[1GG	(4G	(4G	4G
.	4Bn	4d	(4g
.	4c)	4e-X)	4a-X
.	4c'	4e-'	4f#X)
=52	=52	=52	=52
4GG]	4Bn	4d	8gL
.	.	.	8G
(4BBn	2G	4r	8g
.	.	.	8gJ
.	.	.	(8qqf/
4C	.	2r	4e-X)
4AA-X)	4G-X	.	8dL
.	.	.	8cJ
=53	=53	=53	=53
[1GG	(4G	4r	4G
.	4Bn	(4d	(4g
.	4c)	4e-X)	4a-X
.	4c	4e-	4f#X)
=54	=54	=54	=54
4GG]	4Bn	4d	8gL
.	.	.	8G
(4BBn	2G	2g	8g
.	.	.	8gJ
.	.	.	(8qqf/
4C	.	.	4e-X)
4AA-X)	4c	4g-X	8dL
.	.	.	8cJ
=55	=55	=55	=55
4GG	(8BnL	4g	2g
.	8c	.	.
4r	8d	4r	.
.	8cJ)	.	.
2r	(8eL	2r	2r
.	8d	.	.
.	8f	.	.
.	8eJ)	.	.
=56	=56	=56	=56
1r	8gL	1r	1r
.	8f	.	.
.	8a	.	.
.	8gJ	.	.
.	8gL	.	.
.	8f	.	.
.	8e	.	.
.	8dJ	.	.
=57	=57	=57	=57
1r	2c'	4r	4r
.	.	4ee	4gg
.	.	(8qqff/	(8qqaa/
.	2e'	4ee)	4gg)
.	.	8ddL	8ffL
.	.	8ccJ	8eeJ
=58	=58	=58	=58
1r	4g'	2.bn	2.dd
.	4g'	.	.
.	4g'	.	.
.	4cc'	4ee-X	4ff#X
=59	=59	=59	=59
1r	(8bnL	2.dd	2.gg
.	8cc)	.	.
.	8dd'	.	.
.	8b'J	.	.
.	4g'	.	.
.	4cc'	4ee-X	4ff#X
=60	=60	=60	=60
1r	2bn	2dd	(8ggL
.	.	.	8gg#X
.	.	.	8aa
.	.	.	8ffnJ)
.	2r	2r	(8ggnL
.	.	.	8ee
.	.	.	8ff
.	.	.	8ddJ)
=61	=61	=61	=61
4r	1r	4r	2cc'
4E	.	4g	.
(8qqF/	.	(8qqa/	.
4E)	.	4g)	2ee'
8DL	.	8fL	.
8CJ	.	8eJ	.
=62	=62	=62	=62
2.BBn	2.g	2.d	4gg'
.	.	.	4gg'
.	.	.	4gg'
4AA	4d	4g-X	4ccc'
=63	=63	=63	=63
2GG	4d	2g	(8bbnL
.	.	.	8ccc)
.	4r	.	8ddd'
.	.	.	8bb'J
4r	4r	4r	4gg'
4D	4d	4ff#X	4ccc'
=64	=64	=64	=64
2G	2d	2gg	(8bbnL
.	.	.	8ccc)
.	.	.	8ddd'
.	.	.	8bb'J
2r	4r	4r	4gg'
.	4e	4cc	4gg#X'
=65	=65	=65	=65
1r	4r	4r	(8gg#XL
.	.	.	8aa
.	4f	4cc	8gg#
.	.	.	8aaJ)
.	4r	4r	(8ff#XL
.	.	.	8ggn
.	4e	4cc#X	8ff#
.	.	.	8ggJ)
=66	=66	=66	=66
1r	4d'	4dd'	(8eeL
.	.	.	8ffn
.	4g'	4bn'	8aa
.	.	.	8ffJ)
.	4c'	4cc'	(8dd#XL
.	.	.	8ee
.	4e'	4g'	8gg
.	.	.	8eeJ)
=67	=67	=67	=67
1r	4f	4a	(8cc#XL
.	.	.	8ddn
.	4r	4r	8ff
.	.	.	8ddJ)
.	4r	4r	(8ccnL
.	.	.	8bn
.	4G	4f	8dd
.	.	.	8bJ)
=68	=68	=68	=68
(8CCL	(8EL	4e	4cc
8EE)	8G)	.	.
8GG'	8c'	4r	4r
8C'J	8e'J	.	.
(8CCL	4E'	2r	2r
8C)	.	.	.
(8DD	4F'	.	.
8CJ)	.	.	.
=69	=69	=69	=69
(8EEL	4G	(8eL	(8gL
8CJ)	.	8g)	8cc)
4r	4r	8cc'	8ee'
.	.	8ee'J	8gg'J
2r	2r	4e'	(8gL
.	.	.	8gg)
.	.	4d'	(8g
.	.	.	8ffJ)
=70	=70	=70	=70
(8CCL	(8EL	4c	(8gL
8EE)	8G)	.	8eeJ)
8GG'	8c'	4r	4r
8C'J	8e'J	.	.
(8CCL	4E'	2r	2r
8C)	.	.	.
(8DD	4F'	.	.
8CJ)	.	.	.
=71	=71	=71	=71
(8EEL	4G	(8eL	(8gL
8CJ)	.	8g)	8cc)
4r	4r	8cc'	8ee'
.	.	8ee'J	8gg'J
2r	2r	4e'	(8gL
.	.	.	8gg)
.	.	4d'	(8g
.	.	.	8ffJ)
=72	=72	=72	=72
(8CL	2r	(4c	(8gL
8E)	.	.	8eeJ)
8G'	.	4e	(4cc
8c'J	.	.	.
(8BnL	4r	4f	4dd
8c	.	.	.
8B-X	[4c	4g)	4ee)
8cJ)	.	.	.
=73	=73	=73	=73
(8AL	(4c]	4a	(4ff
8c)	.	.	.
(8G	4B-	4b-X	4gg
8cJ)	.	.	.
4F	4A)	4cc	4aa)
4r	4r	4r	(8cccL
.	.	.	8gg#XJ)
=74	=74	=74	=74
1r	1r	2r	(8aaL
.	.	.	8ee
.	.	.	8ff
.	.	.	8cc#XJ)
.	.	4r	(8ddL
.	.	.	8a
.	.	(8aL	8ff
.	.	8fJ)	8ddJ)
=75	=75	=75	=75
4G	2e	2e	2ccn
4G	.	.	.
.	(8qqg/	.	(8qqee/
4G	2f)	2Bn	2dd)
4G	.	.	.
=76	=76	=76	=76
(8CL	(8eL	4c	2cc
8E)	8g)	.	.
8G	8cc	4r	.
8cJ	8eeJ	.	.
4C	(8eL	2r	2r
.	8cc)	.	.
4D	(8f	.	.
.	8ccJ)	.	.
=77	=77	=77	=77
4E	(8gL	(8eeL	(8ggL
.	8ccJ)	8gg)	8ccc)
4r	4r	8ccc'	8eee'
.	.	8eee'J	8ggg'J
2r	2r	4ee'	(8ggL
.	.	.	8ggg)
.	.	4dd'	(8gg
.	.	.	8fffJ)
=78	=78	=78	=78
(8CL	(8eL	4cc	(8ggL
8E)	8g)	.	8eeeJ)
8G'	8cc'	4r	4r
8c'J	8ee'J	.	.
4C'	(8eL	2r	2r
.	8cc)	.	.
4D'	(8f	.	.
.	8ccJ)	.	.
=79	=79	=79	=79
4E	(8gL	(8eeL	(8ggL
.	8ccJ)	8gg)	8ccc)
4r	4r	8ccc'	8eee'
.	.	8eee'J	8ggg'J
2r	2r	4ee'	(8ggL
.	.	.	8ggg)
.	.	4dd'	(8gg
.	.	.	8fffJ)
=80	=80	=80	=80
8CCL	(2c	(4cc	(8ggL
8C	.	.	8eeeJ)
8CC	.	4ee	(4ccc
8CJ	.	.	.
8DDL	4d	4ff	4bbn
8C	.	.	.
8EE	4e)	4gg)	4bb-X)
8CJ	.	.	.
=81	=81	=81	=81
4FF	4f	4aa	(8aaL
.	.	.	8gg)
4r	4r	4r	8aa'
.	.	.	8ee'J
2r	2r	2r	(8ffL
.	.	.	8ee)
.	.	.	8ff'
.	.	.	8cc#X'J
=82	=82	=82	=82
4F	4d	4a	(8ddL
.	.	.	8a)
4r	4r	4r	8ff'
.	.	.	8cc#X'J
4F	4d	4a	(8ddL
.	.	.	8a)
4r	4r	4r	8ff'
.	.	.	8cc#'J
=83	=83	=83	=83
4F	4d	4a	(8ddL
.	.	.	8a)
4r	4r	4r	8ff'
.	.	.	8cc#X'J
4F	4d	4a	(8ddL
.	.	.	8a)
4r	4r	4r	8ff'
.	.	.	8dd'J
=84	=84	=84	=84
2G	2e	2e	8ccL
.	.	.	8e
.	.	.	8g
.	.	.	8ccJ
2r	2r	2r	8eeL
.	.	.	8bn
.	.	.	8cc
.	.	.	8eeJ
=85	=85	=85	=85
4r	4r	4r	1ggT
4G	4c	4e	.
4G	4c	4e	.
4G	4c	4e	.
=86	=86	=86	=86
4r	4r	4r	1bnt
4G#X	4d	4f	.
4G#	4d	4f	.
4G#	4d	4f	.
=87	=87	=87	=87
4r	4r	4r	1cccT
4A	4e-X	4f#X	.
4A	4e-	4f#	.
4A	4e-	4f#	.
=88	=88	=88	=88
4r	4r	4r	1ddT
4Gn	4f	4bn	.
4G	4f	4b	.
4G	4f	4b	.
=89	=89	=89	=89
4c	8eL	4cc	4cc
.	8g	.	.
4c	8e	4g	4gg
.	8gJ	.	.
4c	8fL	4g	(8bnL
.	8g	.	8cc)
4c	8f	4g	8dd'
.	8gJ	.	8b'J
=90	=90	=90	=90
4c	8eL	4g	4cc
.	8g	.	.
4c	8e	4g	4gg
.	8gJ	.	.
4c	8fL	4g	(8bnL
.	8g	.	8cc)
4c	8f	4g	8dd'
.	8gJ	.	8b'J
=91	=91	=91	=91
4c	4e	4g	4cc
4r	4e	4gg	4gg
4G	(8fL	(8bnL	(8aaL
.	8e)	8cc)	8gg)
4r	8d'	8dd'	8gg'
.	8f'J	8b'J	8gg'J
=92	=92	=92	=92
4c	4e	4cc	(8aaL
.	.	.	8gg)
4r	4e	4gg	8gg'
.	.	.	8gg'J
4G	(8fL	(8bnL	(8aaL
.	8e)	8cc)	8gg)
4r	8d'	8dd'	8gg'
.	8f'J	8b'J	8gg'J
=93	=93	=93	=93
4C	4e	(4.ccT	(4.cccT
4r	4r	.	.
.	.	16bnLL	16bbnLL
.	.	16ccJJ)	16cccJJ)
2r	2r	(4.bt	(4.bbt
.	.	16f#XLL	16ff#XLL
.	.	16gJJ)	16ggJJ)
=94	=94	=94	=94
2r	2r	(4.et	(4.eet
.	.	16dLL	16ddLL
.	.	16eJJ)	16eeJJ)
4c	4c	4c	4cc
4c	4c	4c	4cc
=95	=95	=95	=95
(4.c	(4.cc	(4.cc	(4.cc
16BnLL	16bnLL	16bnLL	16bnLL
16cJJ)	16ccJJ)	16ccJJ)	16ccJJ)
(4.B	(4.b	(4.b	(4.b
16F#XLL	16f#XLL	16f#XLL	16f#XLL)
16GJJ)	16gJJ)	16gJJ)	16gJJ
=96	=96	=96	=96
(4.E	(4.e	(4.e	(4.e
16DLL	16dLL	16dLL	16dLL
16EJJ)	16eJJ)	16eJJ)	16eJJ)
4C	4c	4c	4c
4C	4c	4c	4c
=97	=97	=97	=97
4C	4c	4c	4c
4r	4r	4r	4r
4C	4c	4c	4c
4C	4c	4c	4c
=98	=98	=98	=98
4C	4c	4c	4c
4r	4r	4r	4r
2r	2r	2r	2r
=99	=99	=99	=99
1D-X	1d-X	1d-X	1d-X
=100	=100	=100	=100
1E	1e	1e	1e
=101:|!|:	=101:|!|:	=101:|!|:	=101:|!|:
1C#X	1c#X	1c#X	1c#X
=102	=102	=102	=102
1E	1e	1e	1e
=103	=103	=103	=103
4A	(8AL	(8c#XL	2a'
.	8c#X)	8e)	.
4r	(8A	(8c#	.
.	8c#J)	8eJ)	.
2r	(8AL	(8c#L	2cc#X'
.	8c#)	8e)	.
.	(8A	(8c#	.
.	8c#J)	8eJ)	.
=104	=104	=104	=104
4A	(8AL	(8c#XL	4ee'
.	8c#X)	8e)	.
4r	(8A	(8c#	4ee'
.	8c#J)	8eJ)	.
2r	(8AL	(8c#L	4ee'
.	8c#)	8e)	.
.	(8A	(8c#	4aa'
.	8c#J)	8eJ)	.
=105	=105	=105	=105
4A	(8BnL	(8dL	(8gg#XL
.	8d)	8e)	8aa)
4r	(8B	(8d	8bbn'
.	8dJ)	8eJ)	8gg#'J
2r	(8BL	(8dL	4ee'
.	8d)	8e)	.
.	(8B	(8d	4gg#'
.	8dJ)	8eJ)	.
=106	=106	=106	=106
4A	(8AL	(8c#XL	4aa
.	8c#X)	8e)	.
4r	(8A	(8c#	4aa
.	8c#J)	8eJ)	.
2r	(8AL	(8c#L	(8aaL
.	8c#)	8e)	8bbn)
.	(8A	(8c#	8ccc#X'
.	8c#J)	8eJ)	8ddd'J
=107	=107	=107	=107
2G#X	8BnL	8dL	2eee
.	8d	8e	.
.	8B	8g#X	.
.	8dJ	8bnJ	.
2A	8c#XL	8aL	4ccc#X
.	8a	8e	.
.	8e	8cc#X	4aa
.	8c#J	8aJ	.
=108	=108	=108	=108
2G#X	8BnL	8dL	2eee
.	8d	8e	.
.	8B	8g#X	.
.	8dJ	8bnJ	.
2A	8c#XL	8aL	4ccc#X
.	8a	8e	.
.	8e	8cc#X	4aa
.	8c#J	8aJ	.
=109	=109	=109	=109
2D	(4a	2.f#X	2fff#X
.	4a#X	.	.
2d	4bn)	.	(8eeeL
.	.	.	8ddd
.	4dd'	4ff#X'	8ccc#X
.	.	.	8bbnJ)
=110	=110	=110	=110
1e	(2cc#X	2.ee	(2aa
.	4bn)	.	4gg#X)
.	4a'	4dd#X'	4ff#X'
=111	=111	=111	=111
4e'	4g#X'	4ee'	4ee'
4e'	4g#'	4bn'	4ee'
4e'	4g#'	4b'	4ee'
4e'	4a'	4b'	(8ff#XL
.	.	.	8dd#XJ)
=112	=112	=112	=112
4e'	4a-X'	4bn'	4ee'
4e'	4a-'	4b'	4ee'
4e'	4a-'	4b'	4ee'
4e'	4an'	4b'	(8ff#XL
.	.	.	8dd#XJ)
=113	=113	=113	=113
4e	2e'	2g#X'	2ee
4r	.	.	.
.	.	.	(8qqee/
2r	2g#X'	2bn'	4ddn)
.	.	.	8ccL
.	.	.	8bnJ
=114	=114	=114	=114
2AA'	4a	4e	2a
.	4e	4cc	.
.	(8qqf/	(8qqdd/	.
2C'	4e)	4cc)	2r
.	8dL	8bnL	.
.	8cJ	8aJ	.
=115	=115	=115	=115
4E'	2.Bn	2.g#X	1r
4E'	.	.	.
4E'	.	.	.
4A'	4d#X	4cc	.
=116	=116	=116	=116
(8G#XL	2.e	2.bn	1r
8A)	.	.	.
8Bn'	.	.	.
8G#'J	.	.	.
4E'	.	.	.
4Gn'	4c#X	4b-X	.
=117	=117	=117	=117
(8F#XL	2.d	2.a	1r
8G)	.	.	.
8A'	.	.	.
8F#'J	.	.	.
4D'	.	.	.
4Fn'	4Bn	4a-X	.
=118	=118	=118	=118
4E	2e'	4g	2cc'
4r	.	4r	.
2r	2g'	2r	2ee'
=119	=119	=119	=119
2GG'	4bn	2Bn'	4gg
.	4b	.	4gg
.	(8qqcc/	.	(8qqaa/
2BBn'	4b)	2d'	4gg)
.	8aL	.	8ffL
.	8gJ	.	8eeJ
=120	=120	=120	=120
4D	2f'	4f	2dd'
4D	.	4f	.
(8qqE/	.	(8qqg/	.
4D)	2a'	4f)	2ff'
8CL	.	8eL	.
8BBnJ	.	8dJ	.
=121	=121	=121	=121
2AA'	2cc'	4c	4aa
.	.	4r	(12aL
.	.	.	12cc
.	.	.	12eeJ)
2C'	2A'	8eeL	4aa
.	.	8dd	.
.	.	8ee	4aa
.	.	8ccJ	.
=122	=122	=122	=122
2.E	[1e	2.bn	(4aa
.	.	.	4bn)
.	.	.	4gg
4D	.	4b-X	4gg
=123	=123	=123	=123
1C#X	2e]	1a	(8ggL
.	.	.	8ff)
.	.	.	8ee'
.	.	.	8dd'J
.	2e	.	(8cc#XL
.	.	.	8b-)
.	.	.	8a'
.	.	.	8g'J
=124	=124	=124	=124
4D	4f	2dd	4f
4r	4a	.	4f
.	(8qqb-/	.	(8qqg/
2r	4a)	2ff	4f)
.	8gL	.	8eL
.	8fJ	.	8dJ
=125	=125	=125	=125
1r	2.e	4aa	2.c#X
.	.	4aa	.
.	.	4aa	.
.	4e-X	4ff#X	4cn
=126	=126	=126	=126
1r	2.d	4gg	2.Bn
.	.	4gg	.
.	.	4gg	.
.	4d-X	4ee	4B-X
=127	=127	=127	=127
4FF	2c'	4ff	4A
4r	.	4aa	4ccc
.	.	(8qqbb-/	(8qqddd/
4AA	2F'	4aa)	4ccc)
4r	.	8ggL	8bb-L
.	.	8ffJ	8aaJ
=128	=128	=128	=128
4C	2c	4ee	4gg
4C	.	4ee	4gg
4C	2r	4ee	4gg
4F	.	(4bn	(4aa-X
=129	=129	=129	=129
(8EL	2r	4cc)	4gg)
8F)	.	.	.
8G	.	4r	4r
8EJ	.	.	.
4C	4r	4r	4r
4r	4f	(4a-X	(4bn
=130	=130	=130	=130
2r	(8eL	4g)	4cc)
.	8f)	.	.
.	8g'	4r	4r
.	8e'J	.	.
4r	4c	4r	2r
4FF	(4A-X	(4Bn	.
=131	=131	=131	=131
(8EEL	4G)	4c)	1r
8FF)	.	.	.
8GG'	4r	4r	.
8EE'J	.	.	.
4CC	2r	2r	.
4r	.	.	.
=132	=132	=132	=132
1r	1r	1r	1r
=133	=133	=133	=133
4c	8cL	(8e-XL	2cc'
.	8e-X	8g)	.
4r	8c	(8e-	.
.	8e-J	8gJ)	.
2r	8cL	(8e-L	2ee-X'
.	8e-	8g)	.
.	8c	(8e-	.
.	8e-J	8gJ)	.
=134	=134	=134	=134
4c	8cL	(8e-XL	4gg'
.	8e-X	8g)	.
4r	8c	(8e-	4gg'
.	8e-J	8gJ)	.
2r	8cL	(8e-L	4gg'
.	8e-	8g)	.
.	8c	(8e-	4ccc'
.	8e-J	8gJ)	.
=135	=135	=135	=135
[1c	[1d [1f	[1a-X	8bbnL
.	.	.	8ccc
.	.	.	8ddd
.	.	.	8bbJ
.	.	.	8ffL
.	.	.	8gg
.	.	.	8aa-X
.	.	.	8ffJ
=136	=136	=136	=136
1c_	1d] 1f]	1a-]	8ddL
.	.	.	8ee-X
.	.	.	8ff
.	.	.	8ddJ
.	.	.	8bnL
.	.	.	8cc
.	.	.	8dd
.	.	.	8bJ
=137	=137	=137	=137
4c]	8e-XL	8gL	8ccL
.	8d	8f	8dd
4r	8c	8e-X	8ee-X
.	8e-J	8gJ	8ccJ
2r	8cL	8e-L	8anL
.	8B-	8d	8b-X
.	8A	8c	8cc
.	8cJ	8e-J	8aJ
=138	=138	=138	=138
1r	8AL	8cL	8f#XL
.	8G	8B-	8g
.	8G-X	8A	8a
.	8AJ	8cJ	8f#J
.	2G-	2A	8dL
.	.	.	8e-X
.	.	.	8d
.	.	.	8cJ
=139	=139	=139	=139
2r	1G	(2B-	8B-L
.	.	.	8c
.	.	.	8B-
.	.	.	8AJ
(2EE-X	.	2c#X)	8GL
.	.	.	8b-
.	.	.	8a
.	.	.	8gJ
=140	=140	=140	=140
2DD)	2d	2d	(8f#XL
.	.	.	8g)
.	.	.	8a
.	.	.	8f#J
4r	4r	2r	4d
(4e-X	4g	.	4cc#X
=141	=141	=141	=141
4d)	(8f#XL	2r	2.dd
.	8g)	.	.
4r	8a	.	.
.	8f#J	.	.
2r	4d	4r	.
.	(4ee-X	4gg	4ccc#X
=142	=142	=142	=142
2r	4dd)	(8ff#XL	2.ddd
.	.	8gg)	.
.	4r	8aa'	.
.	.	8ff#'J	.
4r	4r	4dd	.
4G	4dd	4ffn	4bbn
=143	=143	=143	=143
2c	2g	8eeL	2.ccc
.	.	8ff	.
.	.	8gg'	.
.	.	8ee'J	.
4r	4r	4cc	.
4F	4cc	4ee-X	4aa
=144	=144	=144	=144
2B- 2B-	4B-	4dd	4bb-
.	4r	4dd	4ff
.	.	(8qqee-X/	(8qqgg/
2r	4d	4dd)	4ff)
.	4r	8ccL	8ee-XL
.	.	8b-J	8ddJ
=145	=145	=145	=145
1r	4f	4a	4cc
.	4f	4r	4r
.	(8qqg/	.	.
.	4f)	4cc	4ee-X
.	8e-XL	4r	4r
.	8dJ	.	.
=146	=146	=146	=146
1r	2c	4ee-X	4gg
.	.	4ee-	4gg
.	.	(8qqff/	(8qqaa-X/
.	2e-X	4ee-)	4gg)
.	.	8ddL	8ffL
.	.	8ccJ	8ee-XJ
=147	=147	=147	=147
1r	2.g	2.bn	4dd
.	.	.	4dd
.	.	.	4dd
.	.	.	(8qqff/
.	4f#X	4cc	4ee-X)
=148	=148	=148	=148
1r	2.g	2.bn	4dd
.	.	.	4dd
.	.	.	4dd
.	.	.	(8qqff/
.	4f#X	4cc	4ee-X)
=149	=149	=149	=149
1r	[1g	[1bn	4dd
.	.	.	4dd
.	.	.	4dd
.	.	.	(8qqff/
.	.	.	4ee-X)
=150	=150	=150	=150
1r	1g]	1b]	4dd
.	.	.	4dd
.	.	.	4dd
.	.	.	(8qqff/
.	.	.	4ee-X)
=151	=151	=151	=151
1r	1g	1b-X	4dd
.	.	.	4dd
.	.	.	4dd
.	.	.	(8qqff/
.	.	.	4ee-X)
=152	=152	=152	=152
1r	1f#X	1a	4dd
.	.	.	4dd
.	.	.	4dd
.	.	.	(8qqff/
.	.	.	4ee-X)
=153	=153	=153	=153
1r	1fn	[1a-X	4dd
.	.	.	4dd
.	.	.	4dd
.	.	.	(8qqff/
.	.	.	4ee-X)
=154	=154	=154	=154
1r	1B- 1f	2a-]	8ddL
.	.	.	8ee-X
.	.	.	8ff
.	.	.	8ggJ
.	.	2d	8aa-XL
.	.	.	8gg
.	.	.	8aa-
.	.	.	8ffJ
=155	=155	=155	=155
2EE-X'	2.B- 2.g	4e-X	8ggL
.	.	.	8aa-X
.	.	4g	8bb-
.	.	.	8ggJ
.	.	(8qqcc/	.
2GG'	.	4b-)	8ee-XL
.	.	.	8ff
.	4e-X	8a-XL	8gg
.	.	8gJ	8ee-J
=156	=156	=156	=156
4BB-'	2.B-	1f	8ddL
.	.	.	8ee-X
4BB-'	.	.	8ff
.	.	.	8ee-J
4BB-'	.	.	8ddL
.	.	.	8cc
4E-X'	4c	.	8b-
.	.	.	8anJ
=157	=157	=157	=157
4D'	4B-	4r	8b-L
.	.	.	8cc
4D'	2f	2b-	8b-
.	.	.	8a-XJ
4D'	.	.	8gL
.	.	.	8f
4A-X'	4f	[4b-	8e-X
.	.	.	8dJ
=158	=158	=158	=158
8GL	1e-X	8b-L]	2e-X'
8A-X	.	8a-X	.
8B-	.	8g	.
8GJ	.	8b-J	.
8E-XL	.	8gL	2g'
8F	.	8f	.
8G	.	8e-X	.
8E-J	.	8gJ	.
=159	=159	=159	=159
8DL	1B-	8fL	4b-'
8E-X	.	8e-X	.
8F	.	8d	4b-'
8E-J	.	8e-J	.
8DL	.	8fL	4b-'
8C	.	8e-	.
8BB-	.	8d	4ee-X'
8AAJ	.	8cJ	.
=160	=160	=160	=160
2.BB-	1B-	(8dL	(8ddL
.	.	8c)	8ee-X)
.	.	8d'	8ff'
.	.	8e-X'J	8ee-'J
.	.	(8fL	(8ddL
.	.	8d)	8b-)
4AA-X	.	8e-'	8cc'
.	.	8f'J	8dd'J
=161	=161	=161	=161
4GG	4E-X	4g	8ee-XL
.	.	.	8ff
2E-X	2B-	4r	8gg
.	.	.	8aa-XJ
.	.	2r	8bb-L
.	.	.	8aa-
4D-X	4Bn	.	8gg
.	.	.	8ffJ
=162	=162	=162	=162
4C	4c	4r	(8eenL
.	.	.	8ff)
4CC	8enL	2cc	8gg'
.	8fJ	.	8ff'J
2r	(8gL	.	(8eeL
.	8e)	.	8cc)
.	8f	4b-	8dd'
.	8gJ	.	8ee'J
=163	=163	=163	=163
4r	4a-X	4a-X	8ffL
.	.	.	8gg
2F	2c	4r	8aa-X
.	.	.	8bb-J
.	.	2r	8cccL
.	.	.	8bb-
4E-X	4d-X	.	8aa-
.	.	.	8ggJ
=164	=164	=164	=164
4D	4d	4r	(8ff#XL
.	.	.	8gg)
4DD	8f#XL	2dd	8aan'
.	8gJ	.	8gg'J
2r	(8anL	.	(8ff#L
.	8f#)	.	8dd)
.	8g	4cc	8ee'
.	8aJ	.	8ff#'J
=165	=165	=165	=165
4r	4b-	8b-L	8ggL
.	.	8cc	8aa
2GG	4G	8dd	8bb-
.	.	8ccJ	8aaJ
.	4B-	8b-L	8ggL
.	.	8a	8ffn
4GG#X	4Bn	8g	8ee
.	.	8fJ	8ddJ
=166	=166	=166	=166
1AA	1c#X	1en	8cc#XL
.	.	.	8dd
.	.	.	8ee
.	.	.	8cc#J
.	.	.	8gL
.	.	.	8a
.	.	.	8b-
.	.	.	8gJ
=167	=167	=167	=167
1AA	2d	1f	8fL
.	.	.	8g
.	.	.	8a
.	.	.	8fJ
.	2G#X	.	8dL
.	.	.	8e
.	.	.	8f
.	.	.	8dJ
=168	=168	=168	=168
1AA	2A	1e	8c#XL
.	.	.	8d
.	.	.	8e
.	.	.	8c#J
.	2c#X	.	8AL
.	.	.	8Bn
.	.	.	8c#
.	.	.	8AJ
=169	=169	=169	=169
1AA	2.d	2.f	8dL
.	.	.	8e
.	.	.	8f
.	.	.	8dJ
.	.	.	8G#XL
.	.	.	8A
.	4G#X	4G#X	8Bn
.	.	.	8G#J
=170	=170	=170	=170
(8AAL	(8AL	(8AL	(8AL
8GG#X	8G#X	8G#X	8G#X
8AA	8A	8A	8A
8GG#J)	8G#J)	8G#J)	8G#J)
(8AAL	(8AL	(8AL	(8AL
8C#X)	8c#X)	8c#X)	8c#X)
8E'	8e'	8e'	8e'
8C#'J	8c#'J	8c#'J	8c#'J
=171	=171	=171	=171
(8AAL	(8AL	(8AL	(8AL
8GG#X	8G#X	8G#X	8G#X
8AA	8A	8A	8A
8GG#J)	8G#J)	8G#J)	8G#J)
(8AAL	(8AL	(8AL	(8AL
8C#X)	8c#X)	8c#X)	8c#X)
8E'	8e'	8e'	8e'
8C#'J	8c#'J	8c#'J	8c#'J
=172	=172	=172	=172
4AA	4A	4A	4A
4r	4r	4r	4r
4AA	4A	4A	4A
8r	8r	8r	8r
16r	16r	16r	16r
16AA	16A	16A	16A
=173	=173	=173	=173
2AA	2A	2A	2A
2r	2r	2r	2r
=174	=174	=174	=174
1r	1r	1r	1r
=175	=175	=175	=175
1D	1D	1d	1d
=176	=176	=176	=176
1E	1E	1e	1e
=177	=177	=177	=177
4F	(8FL	(8AL	2f'
.	8A)	8c)	.
4r	(8F	(8A	.
.	8AJ)	8cJ)	.
2r	(8FL	(8AL	2a'
.	8A)	8c)	.
.	(8F	8A	.
.	8AJ)	8cJ	.
=178	=178	=178	=178
4F	(8FL	(8AL	4cc'
.	8A)	8c)	.
4r	(8F	(8A	4cc'
.	8AJ)	8cJ)	.
2r	(8FL	(8AL	4cc'
.	8A)	8c)	.
.	(8F	8A	4ff'
.	8AJ)	8cJ	.
=179	=179	=179	=179
4F	(8GL	(8B-L	(8eeL
.	8B-)	8c)	8ff)
4r	(8G	(8B-	8gg'
.	8B-J)	8cJ)	8ee'J
2r	(8GL	(8B-L	4cc'
.	8B-)	8c)	.
.	(8G	(8B-	4ee'
.	8B-J)	8cJ)	.
=180	=180	=180	=180
4F	(8FL	(8AL	4ff'
.	8A)	8c)	.
4r	(8F	(8A	4ff'
.	8AJ)	8cJ)	.
2r	(8FL	(8AL	(8ffL
.	8A)	8c)	8gg)
.	(8F	(8A	8aa'
.	8AJ)	8cJ)	8bb-'J
=181	=181	=181	=181
2E	8GL	8B-L	2ccc
.	8B-	8c	.
.	8G	8e	.
.	8B-J	8gJ	.
2F	8AL	8fL	4aa
.	8f	8c	.
.	8c	8a	4ff
.	8AJ	8fJ	.
=182	=182	=182	=182
2E	8GL	8B-L	2ccc
.	8B-	8c	.
.	8G	8e	.
.	8B-J	8gJ	.
2F	8AL	8fL	4aa
.	8f	8c	.
.	8c	8a	4ff
.	8AJ	8fJ	.
=183	=183	=183	=183
2BB-	(4f	2.d	2ddd
.	4f#X	.	.
2B-	4g)	.	(8cccL
.	.	.	8bb-
.	4b-'	4dd'	8aa
.	.	.	8ggJ)
=184	=184	=184	=184
1c	(2a	2.cc	(2ff
.	4g)	.	4ee)
.	4fn'	4bn'	4dd'
=185	=185	=185	=185
4c'	4e'	4cc'	4cc'
4c'	4e'	4g'	4cc'
4c'	4e'	4g'	4cc'
4c'	4f'	4g'	(8ddL
.	.	.	8bnJ)
=186	=186	=186	=186
4c'	4e'	4g'	4cc'
4c'	4e'	4g'	4cc'
4c'	4e'	4g'	4cc'
4c'	4f'	4g'	(8ddL
.	.	.	8bnJ)
=187	=187	=187	=187
4c	4e	4e	4cc
4r	4r	4r	4r
4c	4e	4g	4cc
4r	4r	4r	4r
=188	=188	=188	=188
4c	4e	4e	4cc
4r	4r	4r	4r
2r	2r	2r	2r
=189	=189	=189	=189
4GG 4G	8GL	8B-XL	2g'
.	8B-X	8d	.
4r	8G	8B-	.
.	8B-J	8dJ	.
2r	8GL	8B-L	2b-X'
.	8B-	8d	.
.	8G	8B-	.
.	8B-J	8dJ	.
=190	=190	=190	=190
4GG 4G	(8GL	(8B-L	4dd'
.	8B-)	8d)	.
4r	(8G	(8B-	4dd'
.	8B-J)	8dJ)	.
2r	(8GL	(8B-L	4dd'
.	8B-)	8d)	.
.	(8G	(8B-	4gg'
.	8B-J)	8dJ)	.
=191	=191	=191	=191
4GG 4G	(8AL	(8cL	(8ff#XL
.	8c)	8d)	8gg)
4r	(8A	(8c	8aa'
.	8cJ)	8dJ)	8ff#'J
2r	(8AL	(8cL	4dd'
.	8c)	8d)	.
.	(8A	(8c	4ff#'
.	8cJ)	8dJ)	.
=192	=192	=192	=192
4GG 4G	(8GL	(8B-L	4gg'
.	8B-)	8d)	.
4r	(8G	(8B-	4gg'
.	8B-J)	8dJ)	.
2r	(8GL	(8B-L	(8ggL
.	8B-)	8d)	8aa)
.	(8G	(8B-	8bb-'
.	8B-J)	8dJ)	8ccc'J
=193	=193	=193	=193
2F#X	8AL	8cL	(2ddd
.	8c	8d	.
.	8A	8f#X	.
.	8cJ	8aJ	.
2G	8B-L	8gL	4bb-)
.	8d	8d	.
.	8g	8b-	4gg'
.	8b-J	8ddJ	.
=194	=194	=194	=194
(2C	(2b-	2gg	(2eee
4D)	4a)	[2ffn	4fff)
4d	(4g#X	.	(4bbn
=195	=195	=195	=195
2c	4a)	4ff]	4ccc)
.	(4f	(4a	(4aa
2C	4e	4g	4bb-X
.	4gn)	4b-)	4ee)
=196	=196	=196	=196
1F	(4f	(4a	[1ff
.	4A	4cc#X	.
.	4Bn	4dd	.
.	4c#X)	4a)	.
=197	=197	=197	=197
1F	2.d	4b-	4ff]
.	.	(8ddL	4ff'
.	.	8b-J)	.
.	.	4f	4ff'
.	4B-	4dd	4ff'
=198	=198	=198	=198
1F	(4A	(4ccn	[1ff
.	4G#X	4bn	.
.	4A	4cc	.
.	4Bn)	4g#X)	.
=199	=199	=199	=199
2F	4c	4a	4ff]
.	4r	(8ccL	4ff'
.	.	8aJ)	.
2r	4r	4f	4ff'
.	4a	4f	4ccc#X'
=200	=200	=200	=200
1r	(4b-	[1f	(4ddd
.	4a	.	4ccc#X
.	4b-	.	4ddd
.	4cc#X)	.	4aa)
=201	=201	=201	=201
1r	2.dd	4f]	4bb-
.	.	4f	(8dddL
.	.	.	8bb-J)
.	.	4f	4ff
.	4b-	4f	4ddd
=202	=202	=202	=202
1r	(4a	[1f	(4ccc
.	4g#X	.	4bbn
.	4a	.	4ccc
.	4bn)	.	4gg#X)
=203	=203	=203	=203
2r	2.cc	4f]	4aa
.	.	4f	(8cccL
.	.	.	8aaJ)
4r	.	4f	4ff
(8FL	4cc	4a	4fff
8AJ)	.	.	.
=204	=204	=204	=204
[1c	4e	4g	(4eee
.	(4e	(4g	4ccc)
.	4f)	4a-X)	(4bbn
.	4f	4a-	4ddd)
=205	=205	=205	=205
2.c]	(8eL	(2g	2.ccc
.	8f)	.	.
.	8g	.	.
.	8eJ	.	.
.	4c	4e)	.
4F	4cc	4a	4eee-X
=206	=206	=206	=206
[1B-	4f	4b-	(4ddd
.	(4d	2f	4bb-)
.	4e-X)	.	(4aa
.	4e-	4f	4ccc)
=207	=207	=207	=207
2B-]	(8dL	(2f	2.bb-
.	8e-X)	.	.
.	8f	.	.
.	8dJ	.	.
2r	4B-	4d)	.
.	4r	4r	4ddd
=208	=208	=208	=208
1r	4r	4r	(4ccc
.	(4f#X	(4dd	4aa)
.	4g)	4b-)	4bb-
.	4r	4r	4ddd
=209	=209	=209	=209
2r	4r	4r	(4ccc
.	(4e	(4cc	4gg
4r	4f	4a)	4aa
4FF	4A)	4a	4ccc)
=210	=210	=210	=210
2.BB-	2.B-	(4dd	(4bb-
.	.	4cc	4aa
.	.	4b-	4gg
4BBn	4Bn	4a)	4ff)
=211	=211	=211	=211
8CCL	1c	2c' 2g	2ee
8C	.	.	.
8CC	.	.	.
8CJ	.	.	.
8CCL	.	2g'	2r
8C	.	.	.
8CC	.	.	.
8CJ	.	.	.
=212	=212	=212	=212
8CCL	1d	4g'	1r
8C	.	.	.
8CC	.	4g'	.
8CJ	.	.	.
8CCL	.	4g'	.
8C	.	.	.
8CC	.	4e'	.
8CJ	.	.	.
=213	=213	=213	=213
8CCL	1c 1e	[1Bn [1a-X	2bn'
8C	.	.	.
8CC	.	.	.
8CJ	.	.	.
8CCL	.	.	2dd'
8C	.	.	.
8CC	.	.	.
8CJ	.	.	.
=214	=214	=214	=214
8CCL	1c 1e	1B] 1a-]	4ff'
8C	.	.	.
8CC	.	.	4ff'
8CJ	.	.	.
8CCL	.	.	4ff'
8C	.	.	.
8CC	.	.	4bn'
8CJ	.	.	.
=215	=215	=215	=215
8CCL	1e	[1B-X [1g	2cc
8C	.	.	.
8CC	.	.	.
8CJ	.	.	.
8CCL	.	.	(4ee
8C	.	.	.
8CC	.	.	8ggL
8CJ	.	.	8bb-XJ)
=216	=216	=216	=216
8CCL	1e	1B-] 1g]	4ddd
8C	.	.	.
8CC	.	.	4ddd
8CJ	.	.	.
8CCL	.	.	4ddd
8C	.	.	.
8CC	.	.	4eee
8CJ	.	.	.
=217	=217	=217	=217
2AA	4c	2A 2f	4fff
.	4c	.	4fff
2r	4a	[2ff	8fffL
.	.	.	8eee
.	4a	.	8ddd
.	.	.	8cccJ
=218	=218	=218	=218
1r	4g	2ff]	8bb-L
.	.	.	8ccc
.	4g	.	8ddd
.	.	.	8bb-J
.	4cc	[2ee	8ggL
.	.	.	8aa
.	4cc	.	8bb-
.	.	.	8ggJ
=219	=219	=219	=219
1r	4f	2ee]	8aaL
.	.	.	8bb-
.	4f	.	8ccc
.	.	.	8aaJ
.	4b-	[2dd	8ffL
.	.	.	8gg
.	4b-	.	8aa
.	.	.	8ffJ
=220	=220	=220	=220
1r	4e	2dd]	8ggL
.	.	.	8aa
.	4e	.	8bb-
.	.	.	8ggJ
.	4a	[2cc	8eeL
.	.	.	8ff
.	4a	.	8gg
.	.	.	8eeJ
=221	=221	=221	=221
1r	4d	2cc]	8ffL
.	.	.	8gg
.	4d	.	8aa
.	.	.	8ffJ
.	4g	2bn	8ddL
.	.	.	8ee
.	4g	.	8ff
.	.	.	8ddJ
=222	=222	=222	=222
2C	2g	2cc	8eeL
.	.	.	8dd
.	.	.	8cc
.	.	.	8bnJ
2r	2r	2r	8ccL
.	.	.	8dd
.	.	.	8ee
.	.	.	8ffJ
=223	=223	=223	=223
2C	2e	2cc	8ggL
.	.	.	8ff
.	.	.	8ee
.	.	.	8ddJ
2r	2r	2r	8eeL
.	.	.	8ff
.	.	.	8gg
.	.	.	8aaJ
=224	=224	=224	=224
1C	1B-	[1G [1e	(8bb-L
.	.	.	8gg)
.	.	.	(8gg
.	.	.	8eeJ)
.	.	.	(8eeL
.	.	.	8cc)
.	.	.	(8cc
.	.	.	8b-J)
=225	=225	=225	=225
1C	1B-	1G] 1e]	(8b-L
.	.	.	8g)
.	.	.	(8g
.	.	.	8eJ)
.	.	.	(8eL
.	.	.	8c)
.	.	.	(8c
.	.	.	8B-J)
=226	=226	=226	=226
(8FFL	(8AL	4A 4f	4A
8AA)	8c)	.	.
8C'	8f'	4r	4r
8F'J	8a'J	.	.
4FF	(8AL	2r	2r
.	8f)	.	.
4GG	(8c	.	.
.	8fJ)	.	.
=227	=227	=227	=227
4AA	(8B-L	(8aL	(8ccL
.	8fJ)	8cc)	8ff)
4r	4r	8ff'	8aa'
.	.	8aa'J	8ccc'J
2r	2r	4a	(8ccL
.	.	.	8ccc)
.	.	4g	(8cc
.	.	.	8bb-J)
=228	=228	=228	=228
(8FFL	(8AL	4f	(8ccL
8AA)	8c)	.	8aaJ)
8C'	8f'	4r	4r
8F'J	8a'J	.	.
4FF	(8AL	2r	2r
.	8f)	.	.
4GG	(8B-	.	.
.	8fJ)	.	.
=229	=229	=229	=229
4AA	(8cL	(8aL	(8ccL
.	8fJ)	8cc)	8ff)
4r	4r	8ff'	8aa'
.	.	8aa'J	8ccc'J
2r	2r	4a	(8ccL
.	.	.	8ccc)
.	.	4g	(8cc
.	.	.	8bb-J)
=230	=230	=230	=230
4r	4r	4f	(8ccL
.	.	.	8aaJ)
(4F	2f	(4a	(4ff
4G	.	4b-	4een
4A)	4f	4cc)	4ee-X)
=231	=231	=231	=231
4B-	4f	4dd	(8ddL
.	.	.	8een
4r	4r	4r	8ff
.	.	.	8eeJ)
4B-	4d	4dd	(8ffL
.	.	.	8ff#X
4r	4r	4r	8gg
.	.	.	8ff#J)
=232	=232	=232	=232
4B-	4d	4g	(8ggL
.	.	.	8dd)
4r	4r	4r	8bb-
.	.	.	8ff#XJ
4B-	4d	4g	(8ggL
.	.	.	8dd)
4r	4r	4r	8bb-
.	.	.	8ff#J
=233	=233	=233	=233
4B-	4d	4g	(8ggL
.	.	.	8dd)
4r	4r	4r	8bb-
.	.	.	8ff#XJ
4r	4r	4r	(8ggL
.	.	.	8dd)
4B-	4c	8e'L	8bb-
.	.	8g'J	8eeJ
=234	=234	=234	=234
4A	4c	4f	(8ffnL
.	.	.	8cc)
4r	4r	4r	8aa
.	.	.	8eeJ
4A	4c	4f	(8ffL
.	.	.	8cc)
4r	4r	4r	8aa
.	.	.	8eeJ
=235	=235	=235	=235
4A	4c	4f	(8ffL
.	.	.	8cc)
4r	4r	4r	8aa
.	.	.	8eeJ
4r	4r	4r	(8ffL
.	.	.	8cc)
4F	4d	4f	8aa
.	.	.	8eeJ
=236	=236	=236	=236
1G	4B-	(8fL	1bn
.	.	8d)	.
.	4r	8a-X'	.
.	.	8e'J	.
.	4r	(8fL	.
.	.	8d)	.
.	4f	8a-'	.
.	.	8f'J	.
=237	=237	=237	=237
1C	(8eL	1g	1b-X
.	8c)	.	.
.	8g'	.	.
.	8f'J	.	.
.	(8eL	.	.
.	8c)	.	.
.	8g'	.	.
.	8e'J	.	.
=238	=238	=238	=238
4F	4f	2.f	(8aL
.	.	.	8cc)
4AA	4A	.	8ff'
.	.	.	8cc'J
4BB-	4B-	.	(8ddL
.	.	.	8a)
4BB-	4d	8d'L	8b-'
.	.	8B-'J	8g'J
=239	=239	=239	=239
1C	2c	4A	8fL
.	.	.	8a
.	.	4r	8cc
.	.	.	8aJ
.	2r	2r	8ffL
.	.	.	8cc
.	.	.	8aa
.	.	.	8ffJ
=240	=240	=240	=240
4r	4r	4r	1cccT
4C	4f	4a	.
4C	4f	4a	.
4C	4f	4a	.
=241	=241	=241	=241
4r	4r	4r	1eet
4C#X	4g	4b-	.
4C#	4g	4b-	.
4C#	4g	4b-	.
=242	=242	=242	=242
4r	4r	4r	1fT
4D	4A-X	4Bn	.
4D	4A-	4B	.
4D	4A-	4B	.
=243	=243	=243	=243
4r	4r	4r	1ggT
4Cn	4b-	4ee	.
4C	4b-	4ee	.
4C	4b-	4ee	.
=244	=244	=244	=244
4F	8aL	4ff	4ff
.	8cc	.	.
4F	8a	2cc	4ccc
.	8ccJ	.	.
4F	8b-L	.	(8eeL
.	8cc	.	8ff)
4F	8b-	[4cc	8gg'
.	8ccJ	.	8ee'J
=245	=245	=245	=245
4F	8aL	4cc]	4ff
.	8cc	.	.
4F	8a	2cc	4ccc
.	8ccJ	.	.
4F	8b-L	.	(8eeL
.	8cc	.	8ff)
4F	8b-	[4cc	8gg'
.	8ccJ	.	8ee'J
=246	=246	=246	=246
4F	4a	4cc]	4ff
4r	4A	4cc	4cc
4C	(8B-L	(8eL	(8ddL
.	8A)	8f)	8cc)
4r	8G'	8g'	8cc'
.	8B-'J	8e'J	8cc'J
=247	=247	=247	=247
4F	4A	4f	(8ddL
.	.	.	8cc)
4r	4A	4cc	8cc'
.	.	.	8cc'J
4C	(8B-L	(8eL	(8ddL
.	8A)	8f)	8cc)
4r	8G'	8g'	8cc'
.	8B-'J	8e'J	8cc'J
=248	=248	=248	=248
(4.fT	4At	(4.fT	(4.ffT
.	4r	.	.
16eLL	.	16eLL	16eeLL
16fJJ)	.	16fJJ)	16ffJJ)
(4.cT	(4.ccnT	(4.ccT	(4.eet
16BnLL	16bnLL	16bnLL	16bnLL
16cJJ)	16ccJJ)	16ccJJ)	16ccJJ)
=249	=249	=249	=249
(4.At	(4.at	(4.at	(4.at
16GLL	16gLL	16gLL	16gLL
16AJJ)	16aJJ)	16aJJ)	16aJJ)
(4.FT	(4.fT	(4.fT	(4.fT
16ELL	16eLL	16eLL	16eLL
16FJJ)	16fJJ)	16fJJ)	16fJJ)
=250	=250	=250	=250
(4.E-XT	(4.e-XT	(4.e-XT	(4.e-XT
16DLL	16dLL	16dLL	16dLL
16E-JJ)	16e-JJ)	16e-JJ)	16e-JJ)
(4.CT	(4.cT	(4.cT	(4.cT
16BB-LL	16B-LL	16B-LL	16B-LL
16CJJ)	16cJJ)	16cJJ)	16cJJ)
=251	=251	=251	=251
(4.At	(4.At	(4.At	(4.At
16GLL	16GLL	16GLL	16GLL
16AJJ)	16AJJ)	16AJJ)	16AJJ)
(4.E-XT	(4.E-XT	(4.cT	(4.at
16DLL	16DLL	16B-LL	16gLL
16E-JJ)	16E-JJ)	16cJJ)	16aJJ)
=252	=252	=252	=252
4DD	4D	4d	8b-L
.	.	.	8B-
4BB-	4f	4d	8d
.	.	.	8fJ
4BB-	4f	4d	8b-L
.	.	.	8d
4BB-	4f	4d	8f
.	.	.	8b-J
=253	=253	=253	=253
4BB-	4d	4f	8ddL
.	.	.	8f
4BB-	4d	4f	8b-
.	.	.	8ddJ
4BB-	4B-	(8ddL	(8ffL
.	.	8cc#X)	8ee)
4BB-	4B-	8dd'	8ff'
.	.	8bn'J	8dd'J
=254	=254	=254	=254
4C	4c	4a'	4cc'
4C	4c	4g'	4b-'
4C	4c	4f'	4a'
4C	4c	4e'	4g'
=255	=255	=255	=255
2F'	2F'	2f'	2f'
2A'	2A'	2a'	2a'
=256	=256	=256	=256
4c'	4c'	4cc'	4cc'
4c'	4c'	4cc'	4cc'
4c'	4c'	4cc'	4cc'
4f'	4f'	4ff'	4ff'
=257	=257	=257	=257
(8eL	(8eL	(8eeL	(8eeL
8f	8f	8ff	8ff
8g	8g	8gg	8gg
8eJ)	8eJ)	8eeJ)	8eeJ)
4c#X'	4c#X'	4cc#X'	4cc#X'
4d'	4d'	4dd'	4dd'
=258	=258	=258	=258
(8cnL	(8cnL	(8ccnL	(8ccnL
8d	8d	8dd	8dd
8e-X	8e-X	8ee-X	8ee-X
8cJ)	8cJ)	8ccJ)	8ccJ)
4A'	4A'	4a'	4a'
4B-'	4B-'	4b-'	4b-'
=259	=259	=259	=259
4F#X'	4F#X'	4f#X'	4f#X'
4G'	4G'	4g'	4g'
4En'	4En'	4en'	4en'
4Fn'	4Fn'	4fn'	4fn'
=260	=260	=260	=260
4BB-'	4B-'	4d'	4g'
4r	4r	4r	4r
4C'	4G'	4B-'	4e'
4r	4r	4r	4r
=261	=261	=261	=261
4F'	4F'	4A'	4f'
4r	4r	4r	4r
4C'	4c'	4g' 4b- 4ee	4e' 4cc 4gg
4r	4r	4r	4r
=262	=262	=262	=262
4FF'	4f'	4f' 4a 4ff	4f' 4cc 4aa
4r	4r	4r	4r
2r	2r	2r	2r
=:|!	=:|!	=:|!	=:|!
*-	*-	*-	*-
!!!system-decoration: [(s1,s2,s3,s4)]
